icon-themes/sifr_svg/cmd/sc_starshapes.concave-star6.svg

<svg viewBox="0 0 16 16" xmlns="http://www.w3.org/2000/svg"><g fill="#555753"><path d="m5 1c.040693.2506015.0622391.5039383.0644531.7578125.0000001 2.7614237-2.3030294 6.2421875-5.0644531 6.2421875 2.7614237 0 5.0605469 3.480764 5.0605469 6.242188-.0009216.253773-.0211624.507111-.0605469.757812.8501818-1.106209 2.1653758-1.75551 3.5605469-1.757812 1.3965443.001091 2.7134341.650516 3.5644531 1.757812-.040693-.250601-.06224-.503938-.064453-.757812.000257-2.375757 1.611697-5.6654743 3.939453-6.1406255v-.2070313c-2.326319-.4748569-3.933434-3.7624303-3.935547-6.1367187.000922-.2537747.021163-.5071109.060547-.7578125-.850182 1.1062093-2.1653757 1.7555097-3.5605469 1.7578125-1.3965444-.0010917-2.713434-.6505167-3.5644531-1.7578125zm1.6054688 3.3007812c.6392053.2076276 1.2696109.4564939 1.9570312.4570313h.0019531.0039063c.667098-.0011011 1.276272-.2489067 1.8984376-.4453125.232274.7705591.551653 1.5277166.970703 2.2402344.307655.523111.749186.9818784 1.175781 1.4453125-.427317.4637822-.871412.9235412-1.179687 1.4472656-.419628.7129005-.738134 1.4689755-.970703 2.2402345-.6226445-.19608-1.2329011-.442838-1.900391-.443359h-.0019531-.0039063c-.6870317.001099-1.3163549.25102-1.9550781.458984-.3281978-1.006408-.7945209-1.9676575-1.4414063-2.8222658-.2549543-.3368232-.6401774-.5726942-.9492187-.8769531.3099627-.3047308.6954504-.5414276.9511719-.8789062.6470794-.8539582 1.1146115-1.8163757 1.4433594-2.8222657z"/><path d="m6.6054688 4.3007812c.6392053.2076276 1.2696109.4564939 1.9570312.4570313h.00195.00391c.667098-.0011 1.276272-.2489067 1.898438-.4453125.232274.7705591.551653 1.5277166.970703 2.2402344.307655.523111.749186.9818784 1.175781 1.4453125-.427318.4637822-.871413.9235412-1.179688 1.4472656-.419628.7129005-.738134 1.4689755-.970703 2.2402345-.6226445-.19608-1.2329011-.442838-1.900391-.443359h-.00195-.00391c-.6870317.0011-1.3163549.25102-1.9550781.458984-.3281972-1.006408-.7945203-1.9676575-1.4414057-2.8222658-.2549543-.3368232-.6401774-.5726942-.9492187-.8769531.3099627-.3047308.6954504-.5414276.9511719-.8789062.6470794-.8539582 1.1146115-1.8163757 1.4433594-2.8222657z" opacity=".35"/></g></svg>

<svg xmlns="http://www.w3.org/2000/svg" viewBox="0 0 16 16">
  <path
     style="fill:#555753"
     d="M 5 1 C 5.040693 1.2506015 5.0622391 1.5039383 5.0644531 1.7578125 C 5.0644532 4.5192362 2.7614237 8 0 8 C 2.7614237 8 5.0605469 11.480764 5.0605469 14.242188 C 5.0596253 14.495961 5.0393845 14.749299 5 15 C 5.8501818 13.893791 7.1653758 13.24449 8.5605469 13.242188 C 9.9570912 13.243279 11.273981 13.892704 12.125 15 C 12.084307 14.749399 12.06276 14.496062 12.060547 14.242188 C 12.060804 11.866431 13.672244 8.5767137 16 8.1015625 L 16 7.8945312 C 13.673681 7.4196743 12.066566 4.1321009 12.064453 1.7578125 C 12.065375 1.5040378 12.085616 1.2507016 12.125 1 C 11.274818 2.1062093 9.9596243 2.7555097 8.5644531 2.7578125 C 7.1679087 2.7567208 5.8510191 2.1072958 5 1 z M 6.6054688 4.3007812 C 7.2446741 4.5084088 7.8750797 4.7572751 8.5625 4.7578125 L 8.5644531 4.7578125 L 8.5683594 4.7578125 C 9.2354574 4.7567114 9.8446314 4.5089058 10.466797 4.3125 C 10.699071 5.0830591 11.01845 5.8402166 11.4375 6.5527344 C 11.745155 7.0758454 12.186686 7.5346128 12.613281 7.9980469 C 12.185964 8.4618291 11.741869 8.9215881 11.433594 9.4453125 C 11.013966 10.158213 10.69546 10.914288 10.462891 11.685547 C 9.8402465 11.489467 9.2299899 11.242709 8.5625 11.242188 L 8.5605469 11.242188 L 8.5566406 11.242188 C 7.8696089 11.243287 7.2402857 11.493208 6.6015625 11.701172 C 6.2733647 10.694764 5.8070416 9.7335145 5.1601562 8.8789062 C 4.9052019 8.542083 4.5199788 8.306212 4.2109375 8.0019531 C 4.5209002 7.6972223 4.9063879 7.4605255 5.1621094 7.1230469 C 5.8091888 6.2690887 6.2767209 5.3066712 6.6054688 4.3007812 z "
     />
  <path
     style="fill:#555753;opacity:0.35"
     d="M 6.6054688,4.3007812 C 7.2446741,4.5084088 7.8750797,4.7572751 8.5625,4.7578125 h 0.00195 0.00391 c 0.667098,-0.0011 1.276272,-0.2489067 1.898438,-0.4453125 0.232274,0.7705591 0.551653,1.5277166 0.970703,2.2402344 0.307655,0.523111 0.749186,0.9818784 1.175781,1.4453125 C 12.185964,8.4618291 11.741869,8.9215881 11.433594,9.4453125 11.013966,10.158213 10.69546,10.914288 10.462891,11.685547 9.8402465,11.489467 9.2299899,11.242709 8.5625,11.242188 H 8.56055 8.55664 c -0.6870317,0.0011 -1.3163549,0.25102 -1.9550781,0.458984 C 6.2733647,10.694764 5.8070416,9.7335145 5.1601562,8.8789062 4.9052019,8.542083 4.5199788,8.306212 4.2109375,8.0019531 4.5209002,7.6972223 4.9063879,7.4605255 5.1621094,7.1230469 5.8091888,6.2690887 6.2767209,5.3066712 6.6054688,4.3007812 Z"
     />
</svg>
